X:1
T: December Waltz
N:
C:John Austin
S: Play  4  times
A:
O:
R:
M:3/4
K:C
I:speed 150
%W: A1
% voice 1 (1 lines, 24 notes)
K:C
M:3/4
L:1/16
G4 |e6 f2 e4 |d4 B4 G4 |A6 G2 a4 |g2 e6 G4 |e6 f2 g4 |a4 b4 c'4 |e6 f2 d4 |c8 G4 |
%W: A2
% voice 1 (1 lines, 24 notes)
e6 f2 e4 |d4 B4 G4 |A6 G2 a4 |g2 e6 G4 |e6 f2 g4 |a4 b4 c'4 |e2 f6 d4 |c8 a2 b2 |
%W: B1
% voice 1 (1 lines, 24 notes)
c'6 b2 a4 |g4 f4 e4 |a2 f6 d4 |B6 A2 G4 |A6 B2 c4 |e4 f4 g4 |a4 b4 c'4 |b8 a2 b2 |
%W: B2
% voice 1 (1 lines, 23 notes)
c'6 b2 a4 |g4 f4 e4 |a2 f6 d4 |B6 A2 G4 |A6 B2 c4 |e4 f4 g4 |e2 f6 d4 |c8 G4 |
%W: C
% voice 1 (1 lines, 16 notes)
f12 |e12 |d6 e2 f4 |g4 a2 b2 c'4 |c12 |d8 a4 |g2 e6 d4 |c8 ||
